src/components/Icon/utils/svgsOptimized/export.svg

<?xml version="1.0" encoding="utf-8"?><svg width="24" height="24" xmlns="http://www.w3.org/2000/svg" viewBox="0 0 24 24"><path d="M11.5 5.7 9.85 7.35v.01c-.2.2-.51.2-.71 0-.2-.2-.2-.51 0-.71l2.5-2.5c.2-.2.51-.2.71 0l2.51 2.5c.2.2.2.51 0 .71-.2.2-.51.2-.71 0L12.5 5.71v5.78c0 .28-.22.5-.5.5s-.5-.22-.5-.5V5.7Z"/><path d="M14.79 9h2.11v-.01c.33 0 .6.27.6.6v6.81c0 .33-.27.6-.6.6H7.09a.6.6 0 0 1-.59-.6V9.59c0-.32.26-.59.59-.59H9.2c.17 0 .3.14.3.3v.6c0 .17-.13.3-.3.3H7.7v5.6h8.59v-5.6h-1.5a.3.3 0 0 1-.3-.3v-.6c0-.17.13-.3.3-.3Z"/></svg>

<svg width="24" height="24" viewBox="0 0 24 24"  xmlns="http://www.w3.org/2000/svg">
<path d="M11.5 5.7L9.85 7.35V7.36C9.65 7.56 9.34 7.56 9.14 7.36C8.94 7.16 8.94 6.85 9.14 6.65L11.64 4.15C11.84 3.95 12.15 3.95 12.35 4.15L14.86 6.65C15.06 6.85 15.06 7.16 14.86 7.36C14.66 7.56 14.35 7.56 14.15 7.36L12.5 5.71V11.49C12.5 11.77 12.28 11.99 12 11.99C11.72 11.99 11.5 11.77 11.5 11.49V5.7Z" />
<path d="M14.79 9H16.9V8.99C17.23 8.99 17.5 9.26 17.5 9.59V16.4C17.5 16.73 17.23 17 16.9 17H7.09C6.77 17 6.5 16.73 6.5 16.4V9.59C6.5 9.27 6.76 9 7.09 9H9.2C9.37 9 9.5 9.14 9.5 9.3V9.9C9.5 10.07 9.37 10.2 9.2 10.2H7.7V15.8H16.29V10.2H14.79C14.62 10.2 14.49 10.06 14.49 9.9V9.3C14.49 9.13 14.62 9 14.79 9Z" />
</svg>
